X:1
T:Laetamini in domino
T:José de Torres y Martinez Bravo [1665-1738]
T:The Bible. Psalm 31, verse 11
T:Laetamini in domino
T:Copyright © 
T:Copyright © 
C:José de Torres y Martinez Bravo [1665-1738]
Z:The Bible. Psalm 31, verse 11
Z:Copyright ©
%%score [ 1 2 ]
L:1/8
M:4/4
K:C
V:1 treble nm="[Soprano]" snm="S."
V:2 bass nm="Bass" snm="B."
V:1
 z2 C2 G>A GF | E>D CE G3 F | E2 z G c>d c_B | A>G FA c3 _B | A2 z c f>g fe | d>c _B2 z fcd | %6
w: Lae- ta- mi- ni in|do- mi- no, lae- ta- mi-|ni, lae- ta- mi- ni in|do- mi- no, lae- ta- mi-|ni, lae- ta- mi- ni in|do- mi- no, et ex- sul-|
w: |||||* * * et e- xul-|
 e/d/e/f/ ef d/c/d/e/ de | c/B/c/d/ cd B/A/B/c/ Bc | ABcd e2 d2 | c2 z2 z4 | z cGA _B/A/B/c/ Bc | %11
w: ta- * * * * te iu- * * * * sti,|ex- * * * * sul- ta- * * * * te|iu- * * * * *|sti,|et ex- sul- ta- * * * * te|
w: ta- * * * * te * * * * * *|||||
 A/G/A/_B/ AB G/F/G/A/ GA | F/E/F/G/ FG E/D/E/F/ EF | DE FG A2 G2 | F4 z4 | z fff e2 ee | d4 cccc | %17
w: iu- * * * * sti, ex- * * * * sul-|ta- * * * * te, ex- * * * * sul-|ta- * te _ iu- *|sti,|et glo- ri- a- mi- ni|om- nes, et glo- ri-|
w: ||||||
 _B2 BB A4 | G2 Bc dc/d/ A/G/A/B/ | cB/c/ G/F/G/A/ _BA/B/ F/E/F/G/ | A/G/A/B/ c/B/c/d/ ef d2- | %21
w: a- mi- ni om-|nes, rec- ti cor- * * * * * *|||
w: ||||
 d2 ^c2 dddd | c2 cc _B4 | AAAA G3 G | Ffff e2 ee | d4 c2 ef | gf/g/ d/c/d/e/ fe/f/ dc/d/ | %27
w: * * de, et glo- ri-|a- mi- ni om-|nes, et glo- ri- a- mi-|ni, et glo- ri- a- mi- ni|om- nes re- cti|_ _ _ cor- * * * * * * * * *|
w: ||||||
 _BA/B/ c4 B2 | c4 GG c2- | cBcG AG/F/ cG | A>G F2 cc f2- | fefc dc/_B/ f2- | ffee e2 d2 | c8 |] %34
w: |de. A- lle- lu-|* ia, a- lle- lu- * * * *|* * ia, a- lle- lu-|* ia, a- lle- lu- * * *|* * ia, a- lle- lu-|ia.|
w: |||||||
V:2
 C,2 C,4 B,,2 | C,2 C4 B,2 | C>D C_B, A,2 E,2 | F,C, F,4 E,2 | F,>G, F,E, D,2 A,,2 | %5
 _B,,C,D,E, F,G,A,B, | C3 A, _B,3 G, | A,3 F, G,3 E, | F,G,A,B, C2 G,2 | z CG,A, _B,/A,/B,/C/ B,C | %10
 A,2 E,F, G,3 E, | F,3 D, E,3 ^C, | D,3 B,, C,3 A,, | _B,,C,D,E, F,2 C,2 | z F,F,F, E,2 E,E, | %15
 D,4 C,CCC | _B,2 B,B, A,4 | G,G,G,G, F,2 F,F, | E,4 D,D,D,D, | C,2 C,C, _B,,4 | %20
 A,,A,A,A, G,2 F,G, | A,2 A,,2 D,2 F,G, | A,G,/A,/ E,/D,/E,/F,/ G,F,/G,/ D,/C,/D,/E,/ | %23
 F,E,/F,/ C,/B,,/C,/D,/ E,D,/E,/ B,,/A,,/B,,/C,/ | D,2 A,B, CB,/C/ G,/F,/G,/A,/ | %25
 _B,A,/B,/ F,/E,/F,/G,/ A,A,A,A, | G,2 G,G, F,2 _B,A,/B,/ | G,F,/G,/ E,D,/E,/ F,2 G,2 | %28
 C,4 C,3 D, | E,2 E,2 F,2 E,2 | F,4 F,3 G, | A,2 A,2 _B,2 A,2 | G,2 C,2 G,4 | C,8 |] %34

